Newaita-dark/devices/64/network-cellular.svg

<svg height="64pt" viewBox="0 0 64 64" width="64pt" xmlns="http://www.w3.org/2000/svg" xmlns:xlink="http://www.w3.org/1999/xlink"><linearGradient id="a" gradientTransform="matrix(.118332 0 0 .125012 1.54018 26.877569)" gradientUnits="userSpaceOnUse" x1="254" x2="254" y1="233.5" y2="254.66667"><stop offset="0" stop-opacity=".27451"/><stop offset="1" stop-opacity="0"/></linearGradient><linearGradient id="b"><stop offset="0" stop-opacity=".313725"/><stop offset=".222222" stop-opacity=".27451"/><stop offset="1" stop-opacity="0"/></linearGradient><radialGradient id="c" cx="450.90894" cy="189.57936" gradientTransform="matrix(.00000035 -.156265 -.281277 -.0000002 104.922816 127.190669)" gradientUnits="userSpaceOnUse" r="21.166656" xlink:href="#b"/><radialGradient id="d" cx="450.90894" cy="189.57936" gradientTransform="matrix(-.00000035 .156265 .281277 .0000002 -41.416753 -15.054957)" gradientUnits="userSpaceOnUse" r="21.166656" xlink:href="#b"/><radialGradient id="e" cx="450.90894" cy="189.57936" gradientTransform="matrix(-.00000035 -.156265 .281277 -.0000002 -41.416753 127.190669)" gradientUnits="userSpaceOnUse" r="21.166656" xlink:href="#b"/><radialGradient id="f" cx="450.90894" cy="189.57936" gradientTransform="matrix(.00000035 .156265 -.281277 .0000002 104.922812 -15.054959)" gradientUnits="userSpaceOnUse" r="21.166656" xlink:href="#b"/><linearGradient id="g" gradientUnits="userSpaceOnUse" x1="31.753048" x2="31.753048" y1="56.067868" y2="5.79220824996"><stop offset="0" stop-color="#66bb6a"/><stop offset="1" stop-color="#81c784"/></linearGradient><linearGradient id="h" gradientUnits="userSpaceOnUse" x1="39.69132" x2="39.69132" y1="56.06789909502" y2="5.79222444893"><stop offset="0" stop-color="#424242"/><stop offset="1" stop-color="#616161"/></linearGradient><path d="m11.246094 56.066406h41.015625v2.648438h-41.015625zm0 0" fill="url(#a)"/><path d="m52.261719 56.066406h5.289062v-2.644531h-5.289062zm0 0" fill="url(#c)"/><path d="m11.246094 56.066406h-5.292969v2.648438h5.292969zm0 0" fill="url(#d)"/><path d="m11.246094 56.066406h-5.292969v-2.644531h5.292969zm0 0" fill="url(#e)"/><path d="m52.261719 56.066406h5.289062v2.648438h-5.289062zm0 0" fill="url(#f)"/><path d="m9.261719 5.792969h44.984375c1.460937 0 2.644531 1.183593 2.644531 2.644531v44.984375c0 1.460937-1.183594 2.644531-2.644531 2.644531h-44.984375c-1.460938 0-2.648438-1.183594-2.648438-2.644531v-44.984375c0-1.460938 1.1875-2.644531 2.648438-2.644531zm0 0" fill="url(#g)"/><path d="m9.261719 5.792969c-1.464844 0-2.648438 1.179687-2.648438 2.644531v.496094c0-1.464844 1.183594-2.644532 2.648438-2.644532h44.984375c1.464844 0 2.644531 1.179688 2.644531 2.644532v-.496094c0-1.464844-1.179687-2.644531-2.644531-2.644531zm0 0" fill="#fff" fill-opacity=".392157"/><path d="m74.086675-168.660675h359.840637c11.686384 0 21.15423 9.467846 21.15423 21.15423v359.840637c0 11.686384-9.467846 21.154229-21.15423 21.154229h-359.840637c-11.686384 0-21.185477-9.467845-21.185477-21.154229v-359.840637c0-11.686384 9.499093-21.15423 21.185477-21.15423zm0 0" fill="none" stroke="#212121" stroke-linecap="round" stroke-linejoin="round" stroke-width="3" transform="matrix(.125012 0 0 .125012 0 26.877566)"/><path d="m20.566406 10.503906c-4.539062 4.542969-7.335937 10.824219-7.335937 17.78125 0 6.957032 2.796875 13.234375 7.335937 17.777344l2.808594-2.808594c-3.820312-3.824218-6.175781-9.113281-6.175781-14.96875 0-5.859375 2.355469-11.144531 6.175781-14.972656zm29.984375 5.617188-2.808593 2.8125c2.386718 2.390625 3.855468 5.691406 3.855468 9.351562 0 3.65625-1.46875 6.960938-3.855468 9.351563l2.808593 2.808593c3.105469-3.109374 5.015625-7.402343 5.015625-12.160156 0-4.757812-1.910156-9.054687-5.015625-12.164062zm-24.367187 0c-3.101563 3.109375-5.015625 7.40625-5.015625 12.164062 0 4.757813 1.914062 9.050782 5.015625 12.160156l2.808594-2.808593c-2.382813-2.390625-3.855469-5.695313-3.855469-9.351563 0-3.660156 1.472656-6.960937 3.855469-9.351562zm12.183594 4.222656c-4.398438 0-7.9375 3.542969-7.9375 7.941406 0 3.46875 2.203124 6.402344 5.292968 7.488282v20.292968h5.292969v-20.292968c3.085937-1.085938 5.289063-4.019532 5.289063-7.488282 0-4.398437-3.539063-7.941406-7.9375-7.941406zm0 0" fill="url(#h)"/><g fill-opacity=".235294"><path d="m20.566406 10.503906c-4.539062 4.542969-7.335937 10.824219-7.335937 17.78125 0 .152344 0 .304688.003906.457032.121094-6.773438 2.894531-12.878907 7.332031-17.324219l2.359375 2.359375c.148438-.15625.296875-.3125.449219-.464844zm29.984375 5.617188-2.808593 2.8125c.152343.152344.300781.308594.445312.46875l2.363281-2.363282c3.003907 3.007813 4.894531 7.125 5.011719 11.703126.003906-.152344.003906-.304688.003906-.457032 0-4.757812-1.910156-9.054687-5.015625-12.164062zm-24.367187 0c-3.101563 3.109375-5.015625 7.40625-5.015625 12.164062 0 .152344.003906.304688.007812.457032.117188-4.578126 2.007813-8.695313 5.007813-11.703126l2.363281 2.363282c.144531-.160156.292969-.316406.445313-.46875zm12.183594 4.222656c-4.398438 0-7.9375 3.542969-7.9375 7.941406 0 .152344.003906.304688.011718.457032.238282-4.183594 3.683594-7.480469 7.925782-7.480469 4.246093 0 7.691406 3.296875 7.925781 7.480469.007812-.152344.011719-.304688.011719-.457032 0-4.398437-3.539063-7.941406-7.9375-7.941406zm-13.222657 8.398438c-.003906.152343-.007812.304687-.007812.457031 0 3.425781 1.289062 6.539062 3.410156 8.882812l.445313-.445312c-2.285157-2.292969-3.730469-5.417969-3.847657-8.894531zm26.445313 0c-.117188 3.476562-1.5625 6.601562-3.847656 8.894531l.445312.445312c2.121094-2.34375 3.410156-5.457031 3.410156-8.882812 0-.152344 0-.304688-.007812-.457031zm-34.386719 0c0 .152343-.003906.304687-.003906.457031 0 5.625 2.171875 10.722656 5.726562 14.503906l.449219-.449219c-3.71875-3.726562-6.050781-8.835937-6.171875-14.511718zm0 0" fill="#fff"/><path d="m22.808594 13.855469c-3.484375 3.773437-5.609375 8.820312-5.609375 14.382812 0 .191407.003906.386719.007812.578125.148438-5.628906 2.472657-10.691406 6.167969-14.390625zm25.496094 5.628906-.5625.558594c2.257812 2.261719 3.699218 5.34375 3.84375 8.773437.007812-.191406.011718-.386718.011718-.578125 0-3.363281-1.242187-6.425781-3.292968-8.753906zm-19.871094 0c-2.054688 2.328125-3.296875 5.390625-3.296875 8.753906 0 .191407.003906.386719.015625.578125.144531-3.429687 1.582031-6.511718 3.839844-8.773437zm2.015625 9.332031c-.011719.191406-.019531.382813-.019531.578125 0 3.46875 2.203124 6.402344 5.292968 7.488281v-1.15625c-2.917968-1.023437-5.042968-3.699218-5.273437-6.910156zm15.835937 0c-.230468 3.210938-2.355468 5.886719-5.269531 6.910156v1.15625c3.085937-1.085937 5.289063-4.019531 5.289063-7.488281 0-.195312-.003907-.386719-.019532-.578125zm-33.046875 0c-.003906.191406-.007812.382813-.007812.578125 0 6.957031 2.796875 13.238281 7.335937 17.78125l2.808594-2.8125c-.191406-.191406-.382812-.390625-.566406-.589843l-2.242188 2.242187c-4.410156-4.414063-7.179687-10.472656-7.328125-17.199219zm7.941407 0c-.007813.191406-.011719.382813-.011719.578125 0 4.757813 1.914062 9.054688 5.015625 12.160157l2.808594-2.808594c-.191407-.191406-.378907-.390625-.558594-.597656l-2.25 2.25c-2.976563-2.980469-4.855469-7.054688-5.003906-11.582032zm34.378906 0c-.148438 4.527344-2.03125 8.601563-5.007813 11.582032l-2.246093-2.25c-.183594.207031-.367188.40625-.5625.597656l2.808593 2.808594c3.105469-3.105469 5.015625-7.402344 5.015625-12.160157 0-.195312-.003906-.386719-.007812-.578125zm-19.835938 27.203125v.046875h5.292969v-.046875zm0 0"/><path d="m9.261719 56.066406c-1.464844 0-2.648438-1.179687-2.648438-2.644531v-.660156c0 1.464843 1.183594 2.644531 2.648438 2.644531h44.984375c1.464844 0 2.644531-1.179688 2.644531-2.644531v.660156c0 1.464844-1.179687 2.644531-2.644531 2.644531zm0 0"/></g><path d="m621.791023 317.568103c-137.230991 137.34909-221.789846 327.252218-221.789846 537.586465 0 210.334248 84.558855 400.119276 221.789846 537.468366l84.913153-84.913152c-115.500783-115.618882-186.714456-275.524873-186.714456-452.555214 0-177.14844 71.213673-336.936332 186.714456-452.673313zm906.527616 169.826304-84.913152 85.031251c72.158464 72.276564 116.563673 172.070185 116.563673 282.72891 0 110.540626-44.405209 210.452346-116.563673 282.72891l84.913152 84.913152c93.888673-94.006772 151.639064-223.797529 151.639064-367.642062s-57.750391-273.753389-151.639064-367.760161zm-736.701311 0c-93.770574 94.006772-151.639065 223.915628-151.639065 367.760161s57.868491 273.63529 151.639065 367.642062l84.913152-84.913152c-72.040366-72.276564-116.563674-172.188284-116.563674-282.72891 0-110.658725 44.523308-210.452346 116.563674-282.72891zm368.350655 127.664976c-132.979428 0-239.977086 107.115756-239.977086 240.095185 0 104.871876 66.607813 193.564195 160.024091 226.395706v613.524096h160.02409v-613.524096c93.298178-32.831511 159.905992-121.52383 159.905992-226.395706 0-132.979429-106.997658-240.095185-239.977087-240.095185zm0 0" fill="none" stroke="#212121" stroke-linecap="round" stroke-linejoin="round" stroke-width="11.338583" transform="scale(.0330761)"/></svg>

<?xml version="1.0" encoding="UTF-8"?>
<svg xmlns="http://www.w3.org/2000/svg" xmlns:xlink="http://www.w3.org/1999/xlink" width="64pt" height="64pt" viewBox="0 0 64 64" version="1.1">
<defs>
<linearGradient id="linear0" gradientUnits="userSpaceOnUse" x1="254" y1="233.5" x2="254" y2="254.66667" gradientTransform="matrix(0.118332,0,0,0.125012,1.54018,26.877569)">
<stop offset="0" style="stop-color:rgb(0%,0%,0%);stop-opacity:0.27451;"/>
<stop offset="1" style="stop-color:rgb(0%,0%,0%);stop-opacity:0;"/>
</linearGradient>
<radialGradient id="radial0" gradientUnits="userSpaceOnUse" cx="450.90894" cy="189.57936" fx="450.90894" fy="189.57936" r="21.166656" gradientTransform="matrix(0.000000348341,-0.156265,-0.281277,-0.000000203077,104.922816,127.190669)">
<stop offset="0" style="stop-color:rgb(0%,0%,0%);stop-opacity:0.313725;"/>
<stop offset="0.222222" style="stop-color:rgb(0%,0%,0%);stop-opacity:0.27451;"/>
<stop offset="1" style="stop-color:rgb(0%,0%,0%);stop-opacity:0;"/>
</radialGradient>
<radialGradient id="radial1" gradientUnits="userSpaceOnUse" cx="450.90894" cy="189.57936" fx="450.90894" fy="189.57936" r="21.166656" gradientTransform="matrix(-0.000000348341,0.156265,0.281277,0.000000203077,-41.416753,-15.054957)">
<stop offset="0" style="stop-color:rgb(0%,0%,0%);stop-opacity:0.313725;"/>
<stop offset="0.222222" style="stop-color:rgb(0%,0%,0%);stop-opacity:0.27451;"/>
<stop offset="1" style="stop-color:rgb(0%,0%,0%);stop-opacity:0;"/>
</radialGradient>
<radialGradient id="radial2" gradientUnits="userSpaceOnUse" cx="450.90894" cy="189.57936" fx="450.90894" fy="189.57936" r="21.166656" gradientTransform="matrix(-0.000000348341,-0.156265,0.281277,-0.000000203077,-41.416753,127.190669)">
<stop offset="0" style="stop-color:rgb(0%,0%,0%);stop-opacity:0.313725;"/>
<stop offset="0.222222" style="stop-color:rgb(0%,0%,0%);stop-opacity:0.27451;"/>
<stop offset="1" style="stop-color:rgb(0%,0%,0%);stop-opacity:0;"/>
</radialGradient>
<radialGradient id="radial3" gradientUnits="userSpaceOnUse" cx="450.90894" cy="189.57936" fx="450.90894" fy="189.57936" r="21.166656" gradientTransform="matrix(0.000000348341,0.156265,-0.281277,0.000000203077,104.922812,-15.054959)">
<stop offset="0" style="stop-color:rgb(0%,0%,0%);stop-opacity:0.313725;"/>
<stop offset="0.222222" style="stop-color:rgb(0%,0%,0%);stop-opacity:0.27451;"/>
<stop offset="1" style="stop-color:rgb(0%,0%,0%);stop-opacity:0;"/>
</radialGradient>
<linearGradient id="linear1" gradientUnits="userSpaceOnUse" x1="254" y1="233.5" x2="254" y2="-168.66667" gradientTransform="matrix(0.125012,0,0,0.125012,0,26.877566)">
<stop offset="0" style="stop-color:rgb(40%,73.333333%,41.568627%);stop-opacity:1;"/>
<stop offset="1" style="stop-color:rgb(50.588235%,78.039216%,51.764706%);stop-opacity:1;"/>
</linearGradient>
<linearGradient id="linear2" gradientUnits="userSpaceOnUse" x1="1200" y1="1695.1182" x2="1200" y2="175.11812" gradientTransform="matrix(0.0330761,0,0,0.0330761,0,0)">
<stop offset="0" style="stop-color:rgb(25.882353%,25.882353%,25.882353%);stop-opacity:1;"/>
<stop offset="1" style="stop-color:rgb(38.039216%,38.039216%,38.039216%);stop-opacity:1;"/>
</linearGradient>
</defs>
<g id="surface1">
<path style=" stroke:none;fill-rule:nonzero;fill:url(#linear0);" d="M 11.246094 56.066406 L 52.261719 56.066406 L 52.261719 58.714844 L 11.246094 58.714844 Z M 11.246094 56.066406 "/>
<path style=" stroke:none;fill-rule:nonzero;fill:url(#radial0);" d="M 52.261719 56.066406 L 57.550781 56.066406 L 57.550781 53.421875 L 52.261719 53.421875 Z M 52.261719 56.066406 "/>
<path style=" stroke:none;fill-rule:nonzero;fill:url(#radial1);" d="M 11.246094 56.066406 L 5.953125 56.066406 L 5.953125 58.714844 L 11.246094 58.714844 Z M 11.246094 56.066406 "/>
<path style=" stroke:none;fill-rule:nonzero;fill:url(#radial2);" d="M 11.246094 56.066406 L 5.953125 56.066406 L 5.953125 53.421875 L 11.246094 53.421875 Z M 11.246094 56.066406 "/>
<path style=" stroke:none;fill-rule:nonzero;fill:url(#radial3);" d="M 52.261719 56.066406 L 57.550781 56.066406 L 57.550781 58.714844 L 52.261719 58.714844 Z M 52.261719 56.066406 "/>
<path style=" stroke:none;fill-rule:nonzero;fill:url(#linear1);" d="M 9.261719 5.792969 L 54.246094 5.792969 C 55.707031 5.792969 56.890625 6.976562 56.890625 8.4375 L 56.890625 53.421875 C 56.890625 54.882812 55.707031 56.066406 54.246094 56.066406 L 9.261719 56.066406 C 7.800781 56.066406 6.613281 54.882812 6.613281 53.421875 L 6.613281 8.4375 C 6.613281 6.976562 7.800781 5.792969 9.261719 5.792969 Z M 9.261719 5.792969 "/>
<path style=" stroke:none;fill-rule:nonzero;fill:rgb(100%,100%,100%);fill-opacity:0.392157;" d="M 9.261719 5.792969 C 7.796875 5.792969 6.613281 6.972656 6.613281 8.4375 L 6.613281 8.933594 C 6.613281 7.46875 7.796875 6.289062 9.261719 6.289062 L 54.246094 6.289062 C 55.710938 6.289062 56.890625 7.46875 56.890625 8.933594 L 56.890625 8.4375 C 56.890625 6.972656 55.710938 5.792969 54.246094 5.792969 Z M 9.261719 5.792969 "/>
<path style="fill:none;stroke-width:3;stroke-linecap:round;stroke-linejoin:round;stroke:rgb(12.941176%,12.941176%,12.941176%);stroke-opacity:1;stroke-miterlimit:4;" d="M 74.086675 -168.660675 L 433.927312 -168.660675 C 445.613696 -168.660675 455.081542 -159.192829 455.081542 -147.506445 L 455.081542 212.334192 C 455.081542 224.020576 445.613696 233.488421 433.927312 233.488421 L 74.086675 233.488421 C 62.400291 233.488421 52.901198 224.020576 52.901198 212.334192 L 52.901198 -147.506445 C 52.901198 -159.192829 62.400291 -168.660675 74.086675 -168.660675 Z M 74.086675 -168.660675 " transform="matrix(0.125012,0,0,0.125012,0,26.877566)"/>
<path style=" stroke:none;fill-rule:nonzero;fill:url(#linear2);" d="M 20.566406 10.503906 C 16.027344 15.046875 13.230469 21.328125 13.230469 28.285156 C 13.230469 35.242188 16.027344 41.519531 20.566406 46.0625 L 23.375 43.253906 C 19.554688 39.429688 17.199219 34.140625 17.199219 28.285156 C 17.199219 22.425781 19.554688 17.140625 23.375 13.3125 Z M 50.550781 16.121094 L 47.742188 18.933594 C 50.128906 21.324219 51.597656 24.625 51.597656 28.285156 C 51.597656 31.941406 50.128906 35.246094 47.742188 37.636719 L 50.550781 40.445312 C 53.65625 37.335938 55.566406 33.042969 55.566406 28.285156 C 55.566406 23.527344 53.65625 19.230469 50.550781 16.121094 Z M 26.183594 16.121094 C 23.082031 19.230469 21.167969 23.527344 21.167969 28.285156 C 21.167969 33.042969 23.082031 37.335938 26.183594 40.445312 L 28.992188 37.636719 C 26.609375 35.246094 25.136719 31.941406 25.136719 28.285156 C 25.136719 24.625 26.609375 21.324219 28.992188 18.933594 Z M 38.367188 20.34375 C 33.96875 20.34375 30.429688 23.886719 30.429688 28.285156 C 30.429688 31.753906 32.632812 34.6875 35.722656 35.773438 L 35.722656 56.066406 L 41.015625 56.066406 L 41.015625 35.773438 C 44.101562 34.6875 46.304688 31.753906 46.304688 28.285156 C 46.304688 23.886719 42.765625 20.34375 38.367188 20.34375 Z M 38.367188 20.34375 "/>
<path style=" stroke:none;fill-rule:nonzero;fill:rgb(100%,100%,100%);fill-opacity:0.235294;" d="M 20.566406 10.503906 C 16.027344 15.046875 13.230469 21.328125 13.230469 28.285156 C 13.230469 28.4375 13.230469 28.589844 13.234375 28.742188 C 13.355469 21.96875 16.128906 15.863281 20.566406 11.417969 L 22.925781 13.777344 C 23.074219 13.621094 23.222656 13.464844 23.375 13.3125 Z M 50.550781 16.121094 L 47.742188 18.933594 C 47.894531 19.085938 48.042969 19.242188 48.1875 19.402344 L 50.550781 17.039062 C 53.554688 20.046875 55.445312 24.164062 55.5625 28.742188 C 55.566406 28.589844 55.566406 28.4375 55.566406 28.285156 C 55.566406 23.527344 53.65625 19.230469 50.550781 16.121094 Z M 26.183594 16.121094 C 23.082031 19.230469 21.167969 23.527344 21.167969 28.285156 C 21.167969 28.4375 21.171875 28.589844 21.175781 28.742188 C 21.292969 24.164062 23.183594 20.046875 26.183594 17.039062 L 28.546875 19.402344 C 28.691406 19.242188 28.839844 19.085938 28.992188 18.933594 Z M 38.367188 20.34375 C 33.96875 20.34375 30.429688 23.886719 30.429688 28.285156 C 30.429688 28.4375 30.433594 28.589844 30.441406 28.742188 C 30.679688 24.558594 34.125 21.261719 38.367188 21.261719 C 42.613281 21.261719 46.058594 24.558594 46.292969 28.742188 C 46.300781 28.589844 46.304688 28.4375 46.304688 28.285156 C 46.304688 23.886719 42.765625 20.34375 38.367188 20.34375 Z M 25.144531 28.742188 C 25.140625 28.894531 25.136719 29.046875 25.136719 29.199219 C 25.136719 32.625 26.425781 35.738281 28.546875 38.082031 L 28.992188 37.636719 C 26.707031 35.34375 25.261719 32.21875 25.144531 28.742188 Z M 51.589844 28.742188 C 51.472656 32.21875 50.027344 35.34375 47.742188 37.636719 L 48.1875 38.082031 C 50.308594 35.738281 51.597656 32.625 51.597656 29.199219 C 51.597656 29.046875 51.597656 28.894531 51.589844 28.742188 Z M 17.203125 28.742188 C 17.203125 28.894531 17.199219 29.046875 17.199219 29.199219 C 17.199219 34.824219 19.371094 39.921875 22.925781 43.703125 L 23.375 43.253906 C 19.65625 39.527344 17.324219 34.417969 17.203125 28.742188 Z M 17.203125 28.742188 "/>
<path style=" stroke:none;fill-rule:nonzero;fill:rgb(0%,0%,0%);fill-opacity:0.235294;" d="M 22.808594 13.855469 C 19.324219 17.628906 17.199219 22.675781 17.199219 28.238281 C 17.199219 28.429688 17.203125 28.625 17.207031 28.816406 C 17.355469 23.1875 19.679688 18.125 23.375 14.425781 Z M 48.304688 19.484375 L 47.742188 20.042969 C 50 22.304688 51.441406 25.386719 51.585938 28.816406 C 51.59375 28.625 51.597656 28.429688 51.597656 28.238281 C 51.597656 24.875 50.355469 21.8125 48.304688 19.484375 Z M 28.433594 19.484375 C 26.378906 21.8125 25.136719 24.875 25.136719 28.238281 C 25.136719 28.429688 25.140625 28.625 25.152344 28.816406 C 25.296875 25.386719 26.734375 22.304688 28.992188 20.042969 Z M 30.449219 28.816406 C 30.4375 29.007812 30.429688 29.199219 30.429688 29.394531 C 30.429688 32.863281 32.632812 35.796875 35.722656 36.882812 L 35.722656 35.726562 C 32.804688 34.703125 30.679688 32.027344 30.449219 28.816406 Z M 46.285156 28.816406 C 46.054688 32.027344 43.929688 34.703125 41.015625 35.726562 L 41.015625 36.882812 C 44.101562 35.796875 46.304688 32.863281 46.304688 29.394531 C 46.304688 29.199219 46.300781 29.007812 46.285156 28.816406 Z M 13.238281 28.816406 C 13.234375 29.007812 13.230469 29.199219 13.230469 29.394531 C 13.230469 36.351562 16.027344 42.632812 20.566406 47.175781 L 23.375 44.363281 C 23.183594 44.171875 22.992188 43.972656 22.808594 43.773438 L 20.566406 46.015625 C 16.15625 41.601562 13.386719 35.542969 13.238281 28.816406 Z M 21.179688 28.816406 C 21.171875 29.007812 21.167969 29.199219 21.167969 29.394531 C 21.167969 34.152344 23.082031 38.449219 26.183594 41.554688 L 28.992188 38.746094 C 28.800781 38.554688 28.613281 38.355469 28.433594 38.148438 L 26.183594 40.398438 C 23.207031 37.417969 21.328125 33.34375 21.179688 28.816406 Z M 55.558594 28.816406 C 55.410156 33.34375 53.527344 37.417969 50.550781 40.398438 L 48.304688 38.148438 C 48.121094 38.355469 47.9375 38.554688 47.742188 38.746094 L 50.550781 41.554688 C 53.65625 38.449219 55.566406 34.152344 55.566406 29.394531 C 55.566406 29.199219 55.5625 29.007812 55.558594 28.816406 Z M 35.722656 56.019531 L 35.722656 56.066406 L 41.015625 56.066406 L 41.015625 56.019531 Z M 35.722656 56.019531 "/>
<path style=" stroke:none;fill-rule:nonzero;fill:rgb(0%,0%,0%);fill-opacity:0.235294;" d="M 9.261719 56.066406 C 7.796875 56.066406 6.613281 54.886719 6.613281 53.421875 L 6.613281 52.761719 C 6.613281 54.226562 7.796875 55.40625 9.261719 55.40625 L 54.246094 55.40625 C 55.710938 55.40625 56.890625 54.226562 56.890625 52.761719 L 56.890625 53.421875 C 56.890625 54.886719 55.710938 56.066406 54.246094 56.066406 Z M 9.261719 56.066406 "/>
<path style="fill:none;stroke-width:11.338583;stroke-linecap:round;stroke-linejoin:round;stroke:rgb(12.941176%,12.941176%,12.941176%);stroke-opacity:1;stroke-miterlimit:4;" d="M 621.791023 317.568103 C 484.560032 454.917193 400.001177 644.820321 400.001177 855.154568 C 400.001177 1065.488816 484.560032 1255.273844 621.791023 1392.622934 L 706.704176 1307.709782 C 591.203393 1192.0909 519.98972 1032.184909 519.98972 855.154568 C 519.98972 678.006128 591.203393 518.218236 706.704176 402.481255 Z M 1528.318639 487.394407 L 1443.405487 572.425658 C 1515.563951 644.702222 1559.96916 744.495843 1559.96916 855.154568 C 1559.96916 965.695194 1515.563951 1065.606914 1443.405487 1137.883478 L 1528.318639 1222.79663 C 1622.207312 1128.789858 1679.957703 998.999101 1679.957703 855.154568 C 1679.957703 711.310035 1622.207312 581.401179 1528.318639 487.394407 Z M 791.617328 487.394407 C 697.846754 581.401179 639.978263 711.310035 639.978263 855.154568 C 639.978263 998.999101 697.846754 1128.789858 791.617328 1222.79663 L 876.53048 1137.883478 C 804.490114 1065.606914 759.966806 965.695194 759.966806 855.154568 C 759.966806 744.495843 804.490114 644.702222 876.53048 572.425658 Z M 1159.967983 615.059383 C 1026.988555 615.059383 919.990897 722.175139 919.990897 855.154568 C 919.990897 960.026444 986.59871 1048.718763 1080.014988 1081.550274 L 1080.014988 1695.07437 L 1240.039078 1695.07437 L 1240.039078 1081.550274 C 1333.337256 1048.718763 1399.94507 960.026444 1399.94507 855.154568 C 1399.94507 722.175139 1292.947412 615.059383 1159.967983 615.059383 Z M 1159.967983 615.059383 " transform="matrix(0.0330761,0,0,0.0330761,0,0)"/>
</g>
</svg>
